X:1
T:Adam Gorman
M:6/4
L:1/4
K:F
 A| B2 A G2 F| E2 F G2 A| B2 A G2 F| A3 z z G| F2 F G- A B| c2 c G- A B|\
 c- d c G2 E| F3 z z||
